assets/images/simple-illustrations/simple-illustration__encryption-man.svg

<svg width="205" height="204" viewBox="0 0 205 204" fill="none" xmlns="http://www.w3.org/2000/svg">
<mask id="path-1-inside-1_967_32186" fill="white">
<path d="M84.9913 108C91.9602 108 98.9292 109.202 105.435 111.396C105.224 111.592 105.016 111.793 104.811 111.998C94.8524 121.956 94.8526 138.102 104.811 148.061C105.655 148.905 106.547 149.678 107.477 150.381L107.478 162H46.0001C36.4458 162 31.0001 159 31.0001 150C31.0001 126 58.0005 108 84.9913 108ZM85.0001 54C98.255 54 109 64.7452 109 78C109 91.2548 98.255 102 85.0001 102C71.7453 102 61.0001 91.2548 61.0001 78C61.0001 64.7452 71.7453 54 85.0001 54Z"/>
</mask>
<path d="M84.9913 108C91.9602 108 98.9292 109.202 105.435 111.396C105.224 111.592 105.016 111.793 104.811 111.998C94.8524 121.956 94.8526 138.102 104.811 148.061C105.655 148.905 106.547 149.678 107.477 150.381L107.478 162H46.0001C36.4458 162 31.0001 159 31.0001 150C31.0001 126 58.0005 108 84.9913 108ZM85.0001 54C98.255 54 109 64.7452 109 78C109 91.2548 98.255 102 85.0001 102C71.7453 102 61.0001 91.2548 61.0001 78C61.0001 64.7452 71.7453 54 85.0001 54Z" fill="#03D47C"/>
<path d="M84.9913 108L84.9913 107H84.9913V108ZM105.435 111.396L106.118 112.126L107.34 110.983L105.754 110.448L105.435 111.396ZM104.811 111.998L104.104 111.291V111.291L104.811 111.998ZM104.811 148.061L104.104 148.768L104.104 148.768L104.811 148.061ZM107.477 150.381L108.477 150.381L108.477 149.883L108.08 149.583L107.477 150.381ZM107.478 162V163H108.478L108.478 162L107.478 162ZM85.0001 54V53V54ZM85.0001 102V103V102ZM84.9913 108L84.9913 109C91.8468 109 98.708 110.183 105.115 112.343L105.435 111.396L105.754 110.448C99.1504 108.221 92.0736 107 84.9913 107L84.9913 108ZM105.435 111.396L104.752 110.665C104.534 110.868 104.318 111.077 104.104 111.291L104.811 111.998L105.518 112.705C105.714 112.509 105.914 112.316 106.118 112.126L105.435 111.396ZM104.811 111.998L104.104 111.291C93.7548 121.64 93.755 138.419 104.104 148.768L104.811 148.061L105.518 147.353C95.9502 137.786 95.9501 122.273 105.518 112.705L104.811 111.998ZM104.811 148.061L104.104 148.768C104.981 149.645 105.908 150.448 106.873 151.178L107.477 150.381L108.08 149.583C107.186 148.907 106.329 148.164 105.518 147.353L104.811 148.061ZM107.477 150.381L106.477 150.381L106.478 162L107.478 162L108.478 162L108.477 150.381L107.477 150.381ZM107.478 162V161H46.0001V162V163H107.478V162ZM46.0001 162V161C41.2874 161 37.803 160.252 35.5088 158.569C33.2839 156.936 32.0001 154.286 32.0001 150H31.0001H30.0001C30.0001 154.714 31.4392 158.064 34.3257 160.181C37.1429 162.248 41.1586 163 46.0001 163V162ZM31.0001 150H32.0001C32.0001 138.403 38.5219 128.173 48.4694 120.804C58.417 113.434 71.7051 109 84.9913 109V108V107C71.2868 107 57.5792 111.566 47.2789 119.196C36.9786 126.827 30.0001 137.597 30.0001 150H31.0001ZM85.0001 54V55C97.7027 55 108 65.2975 108 78H109H110C110 64.1929 98.8072 53 85.0001 53V54ZM109 78H108C108 90.7025 97.7027 101 85.0001 101V102V103C98.8072 103 110 91.8071 110 78H109ZM85.0001 102V101C72.2976 101 62.0001 90.7025 62.0001 78H61.0001H60.0001C60.0001 91.8071 71.193 103 85.0001 103V102ZM61.0001 78H62.0001C62.0001 65.2975 72.2976 55 85.0001 55V54V53C71.193 53 60.0001 64.1929 60.0001 78H61.0001Z" fill="#002140" mask="url(#path-1-inside-1_967_32186)"/>
<path d="M111.529 118.716C117.777 112.467 127.908 112.467 134.156 118.716C140.404 124.964 140.404 135.095 134.156 141.343C131.709 143.79 128.668 145.279 125.497 145.81L125.079 145.879V155.728H132.759V163.728H125.079V168.45H132.948L132.949 176.199H116.978V144.924L116.671 144.797C114.802 144.016 113.051 142.865 111.529 141.343C105.28 135.095 105.28 124.964 111.529 118.716ZM119.307 122.251C117.354 124.204 117.354 127.37 119.307 129.322C121.259 131.275 124.425 131.275 126.378 129.322C128.33 127.37 128.33 124.204 126.378 122.251C124.425 120.299 121.259 120.299 119.307 122.251Z" fill="#FED607" stroke="#002140"/>
<path d="M123.827 28H122.804C120.703 28 119 29.7295 119 31.863V44.5208C119 46.6543 120.703 48.3838 122.804 48.3838H123.827C125.928 48.3838 127.631 46.6543 127.631 44.5208V31.863C127.631 29.7295 125.928 28 123.827 28Z" stroke="#4ED7DE" stroke-width="3" stroke-linecap="round" stroke-linejoin="round"/>
<path d="M119.135 44.9178L127.375 30.9469" stroke="#4ED7DE" stroke-width="3" stroke-linecap="round" stroke-linejoin="round"/>
<path d="M141.509 28H140.487C138.386 28 136.683 29.7295 136.683 31.863V44.5208C136.683 46.6543 138.386 48.3838 140.487 48.3838H141.509C143.61 48.3838 145.313 46.6543 145.313 44.5208V31.863C145.313 29.7295 143.61 28 141.509 28Z" stroke="#4ED7DE" stroke-width="3" stroke-linecap="round" stroke-linejoin="round"/>
<path d="M136.818 44.9178L145.058 30.9469" stroke="#4ED7DE" stroke-width="3" stroke-linecap="round" stroke-linejoin="round"/>
<path d="M123.827 55.957H122.804C120.703 55.957 119 57.6866 119 59.82V72.4779C119 74.6113 120.703 76.3409 122.804 76.3409H123.827C125.928 76.3409 127.631 74.6113 127.631 72.4779V59.82C127.631 57.6866 125.928 55.957 123.827 55.957Z" stroke="#4ED7DE" stroke-width="3" stroke-linecap="round" stroke-linejoin="round"/>
<path d="M119.135 72.8749L127.375 58.9039" stroke="#4ED7DE" stroke-width="3" stroke-linecap="round" stroke-linejoin="round"/>
<path d="M159.191 55.5601H158.169C156.068 55.5601 154.365 57.2896 154.365 59.4231V72.0809C154.365 74.2144 156.068 75.9439 158.169 75.9439H159.191C161.292 75.9439 162.996 74.2144 162.996 72.0809V59.4231C162.996 57.2896 161.292 55.5601 159.191 55.5601Z" stroke="#4ED7DE" stroke-width="3" stroke-linecap="round" stroke-linejoin="round"/>
<path d="M154.485 72.478L162.725 58.5223" stroke="#4ED7DE" stroke-width="3" stroke-linecap="round" stroke-linejoin="round"/>
<path d="M176.889 55.5601H175.867C173.766 55.5601 172.062 57.2896 172.062 59.4231V72.0809C172.062 74.2144 173.766 75.9439 175.867 75.9439H176.889C178.99 75.9439 180.693 74.2144 180.693 72.0809V59.4231C180.693 57.2896 178.99 55.5601 176.889 55.5601Z" stroke="#4ED7DE" stroke-width="3" stroke-linecap="round" stroke-linejoin="round"/>
<path d="M172.198 72.478L180.438 58.5223" stroke="#4ED7DE" stroke-width="3" stroke-linecap="round" stroke-linejoin="round"/>
<path d="M141.449 82.815H140.426C138.325 82.815 136.622 84.5445 136.622 86.678V99.3358C136.622 101.469 138.325 103.199 140.426 103.199H141.449C143.55 103.199 145.253 101.469 145.253 99.3358V86.678C145.253 84.5445 143.55 82.815 141.449 82.815Z" stroke="#4ED7DE" stroke-width="3" stroke-linecap="round" stroke-linejoin="round"/>
<path d="M136.743 99.7326L144.998 85.7769" stroke="#4ED7DE" stroke-width="3" stroke-linecap="round" stroke-linejoin="round"/>
<path d="M177.024 82.815H176.002C173.901 82.815 172.198 84.5445 172.198 86.678V99.3358C172.198 101.469 173.901 103.199 176.002 103.199H177.024C179.125 103.199 180.829 101.469 180.829 99.3358V86.678C180.829 84.5445 179.125 82.815 177.024 82.815Z" stroke="#4ED7DE" stroke-width="3" stroke-linecap="round" stroke-linejoin="round"/>
<path d="M172.333 99.7326L180.573 85.7769" stroke="#4ED7DE" stroke-width="3" stroke-linecap="round" stroke-linejoin="round"/>
<path d="M156.365 32.1531L159.312 28V48.1243" stroke="#4ED7DE" stroke-width="3" stroke-linecap="round" stroke-linejoin="round"/>
<path d="M155.643 48.1241H162.996" stroke="#4ED7DE" stroke-width="3" stroke-linecap="round" stroke-linejoin="round"/>
<path d="M174.213 32.1531L177.16 28V48.1243" stroke="#4ED7DE" stroke-width="3" stroke-linecap="round" stroke-linejoin="round"/>
<path d="M173.491 48.1241H180.828" stroke="#4ED7DE" stroke-width="3" stroke-linecap="round" stroke-linejoin="round"/>
<path d="M138.562 59.8509L141.509 55.6978V75.822" stroke="#4ED7DE" stroke-width="3" stroke-linecap="round" stroke-linejoin="round"/>
<path d="M137.84 75.8218H145.178" stroke="#4ED7DE" stroke-width="3" stroke-linecap="round" stroke-linejoin="round"/>
<path d="M156.245 86.5862L159.192 82.433V102.557" stroke="#4ED7DE" stroke-width="3" stroke-linecap="round" stroke-linejoin="round"/>
<path d="M155.523 102.557H162.86" stroke="#4ED7DE" stroke-width="3" stroke-linecap="round" stroke-linejoin="round"/>
</svg>

<svg xmlns="http://www.w3.org/2000/svg" width="205" height="204" fill="none" viewBox="0 0 205 204"><mask id="a" fill="#fff"><path d="M84.991 108c6.97 0 13.938 1.202 20.444 3.396q-.316.294-.624.602c-9.959 9.958-9.958 26.104 0 36.063a26 26 0 0 0 2.666 2.32l.001 11.619H46c-9.554 0-15-3-15-12 0-24 27-42 53.991-42m.01-54C98.254 54 109 64.745 109 78s-10.745 24-24 24-24-10.745-24-24 10.745-24 24-24"/></mask><path fill="#03d47c" d="M84.991 108c6.97 0 13.938 1.202 20.444 3.396q-.316.294-.624.602c-9.959 9.958-9.958 26.104 0 36.063a26 26 0 0 0 2.666 2.32l.001 11.619H46c-9.554 0-15-3-15-12 0-24 27-42 53.991-42m.01-54C98.254 54 109 64.745 109 78s-10.745 24-24 24-24-10.745-24-24 10.745-24 24-24"/><path fill="#002140" d="M84.991 108v-1zm20.444 3.396.683.73 1.222-1.143-1.586-.535zm-.624.602-.707-.707zm0 36.063-.707.707zm2.666 2.32h1v-.498l-.397-.3zm.001 11.619v1h1v-1zM85 54v-1zm0 48v1zm-.009 6v1c6.856 0 13.717 1.183 20.124 3.343l.32-.947.319-.948C99.15 108.221 92.074 107 84.991 107zm20.444 3.396-.683-.731q-.327.305-.648.626l.707.707.707.707q.294-.294.6-.579zm-.624.602-.707-.707c-10.35 10.349-10.349 27.128 0 37.477l.707-.707.707-.708c-9.568-9.567-9.568-25.08 0-34.648zm0 36.063-.707.707c.877.877 1.804 1.68 2.769 2.41l.604-.797.603-.798a25 25 0 0 1-2.562-2.23zm2.666 2.32h-1l.001 11.619h2l-.001-11.619zm.001 11.619v-1H46v2h61.478zM46 162v-1c-4.713 0-8.197-.748-10.491-2.431C33.284 156.936 32 154.286 32 150h-2c0 4.714 1.44 8.064 4.326 10.181C37.143 162.248 41.159 163 46 163zm-15-12h1c0-11.597 6.522-21.827 16.47-29.196C58.416 113.434 71.704 109 84.99 109v-2c-13.704 0-27.412 4.566-37.712 12.196C36.979 126.827 30 137.597 30 150zm54-96v1c12.703 0 23 10.298 23 23h2c0-13.807-11.193-25-25-25zm24 24h-1c0 12.703-10.297 23-23 23v2c13.807 0 25-11.193 25-25zm-24 24v-1c-12.702 0-23-10.297-23-23h-2c0 13.807 11.193 25 25 25zM61 78h1c0-12.702 10.298-23 23-23v-2c-13.807 0-25 11.193-25 25z" mask="url(#a)"/><path fill="#fed607" stroke="#002140" d="M111.529 118.716c6.248-6.249 16.379-6.249 22.627 0s6.248 16.379 0 22.627a15.93 15.93 0 0 1-8.659 4.467l-.418.069v9.849h7.68v8h-7.68v4.722h7.869l.001 7.749h-15.971v-31.275l-.307-.127a16 16 0 0 1-5.142-3.454c-6.249-6.248-6.249-16.379 0-22.627Zm7.778 3.535a5 5 0 0 0 0 7.071 5 5 0 1 0 7.071-7.071 5 5 0 0 0-7.071 0Z"/><path stroke="#4ed7de" stroke-linecap="round" stroke-linejoin="round" stroke-width="3" d="M123.827 28h-1.023c-2.101 0-3.804 1.73-3.804 3.863v12.658c0 2.133 1.703 3.863 3.804 3.863h1.023c2.101 0 3.804-1.73 3.804-3.863V31.863c0-2.133-1.703-3.863-3.804-3.863m-4.692 16.918 8.24-13.971M141.509 28h-1.022c-2.101 0-3.804 1.73-3.804 3.863v12.658c0 2.133 1.703 3.863 3.804 3.863h1.022c2.101 0 3.804-1.73 3.804-3.863V31.863c0-2.133-1.703-3.863-3.804-3.863m-4.691 16.918 8.24-13.971m-21.231 25.01h-1.023c-2.101 0-3.804 1.73-3.804 3.863v12.658c0 2.133 1.703 3.863 3.804 3.863h1.023c2.101 0 3.804-1.73 3.804-3.863V59.82c0-2.133-1.703-3.863-3.804-3.863m-4.692 16.918 8.24-13.971m31.816-3.344h-1.022c-2.101 0-3.804 1.73-3.804 3.863v12.658c0 2.133 1.703 3.863 3.804 3.863h1.022c2.101 0 3.805-1.73 3.805-3.863V59.423c0-2.133-1.704-3.863-3.805-3.863m-4.706 16.918 8.24-13.956m14.164-2.962h-1.022c-2.101 0-3.805 1.73-3.805 3.863v12.658c0 2.133 1.704 3.863 3.805 3.863h1.022c2.101 0 3.804-1.73 3.804-3.863V59.423c0-2.133-1.703-3.863-3.804-3.863m-4.691 16.918 8.24-13.956m-38.989 24.293h-1.023c-2.101 0-3.804 1.73-3.804 3.863v12.658c0 2.133 1.703 3.863 3.804 3.863h1.023c2.101 0 3.804-1.73 3.804-3.863V86.678c0-2.133-1.703-3.863-3.804-3.863m-4.706 16.918 8.255-13.956m32.026-2.962h-1.022c-2.101 0-3.804 1.73-3.804 3.863v12.658c0 2.133 1.703 3.863 3.804 3.863h1.022c2.101 0 3.805-1.73 3.805-3.863V86.678c0-2.133-1.704-3.863-3.805-3.863m-4.691 16.918 8.24-13.956m-24.208-53.624L159.312 28v20.124m-3.669 0h7.353m11.217-15.971L177.16 28v20.124m-3.669 0h7.337M138.562 59.85l2.947-4.152v20.124m-3.669 0h7.338m11.067 10.764 2.947-4.153v20.124m-3.669 0h7.337"/></svg>
